X: 1556
T: Chief O'Neill's Favorite   #2
R: hornpipe, reel
%S: s:2 b:13(6+7)
B: O'Neill's 1850 #1556
O: Cronin
Z: Michael Hogan
Z: Slurs corrected by John Chambers
Z: Compacted via repeats and multiple endings [JC]
M: C|
L: 1/8
K: D
(de) | fef(g af)ge | fde(d dc)AG | (FE)(FD) [1 FGA(B | c)Adc A2 :|[2 GBAG | F2D2 D2 :: (DE) | (FEF)(D FG)AB |
| cAd(B cA)GB | Add(e fd)ed | c(Adc) A2(de) || fef(g  af)ge | fde(d dc)AG | (FE)(FD) GBAG | F2D2 D2 :|
%%text Most of the C notes are natural in modern playing styles.
